X:12662
T:Paddy Kelly's
R:reel
S:Claire Keville
D:Mary Bergin: Feadoga Stain 2
Z:id:hn-reel-692
M:C|
K:G
BGAF DG~G2|ABcA defg|afge ~f3e|dfed cAdc|
BGAF DG~G2|ABcA defg|afge ~f3e|1 dcAF ~G3A:|2 dcAF G4||
|:defg a2fa|gfde dcA2|defg ad~d2|fdfa ~g3f|
defg a2fa|gfde dcAG|~F3G A2fe|1 dcAF G4:|2 dcAF ~G3A||
